X: 7808
T: Come Up To The Room, I Want Ye
R: reel
M: 4/4
K: Gmajor
d2BG DGBd|e2dg eage|dBBG DGBd|dedc B~G3|
dBBG DGBd|egdg eage|d2BG DGBd|eedc B~G3||
g2bg eede|gabg aaga|g2bg egdB|dega b~g3|
ggag eede|gabg aag2|ggfg egdB|dega bgge|

